styles/2/Numix/96/places/blue-folder-books.svg

<?xml version="1.0" encoding="UTF-8" standalone="no"?>
<svg
   xmlns:dc="http://purl.org/dc/elements/1.1/"
   xmlns:cc="http://creativecommons.org/ns#"
   xmlns:rdf="http://www.w3.org/1999/02/22-rdf-syntax-ns#"
   xmlns:svg="http://www.w3.org/2000/svg"
   xmlns="http://www.w3.org/2000/svg"
   xmlns:sodipodi="http://sodipodi.sourceforge.net/DTD/sodipodi-0.dtd"
   xmlns:inkscape="http://www.inkscape.org/namespaces/inkscape"
   width="96px"
   height="96px"
   viewBox="0 0 96 96"
   version="1.1"
   id="svg2"
   inkscape:version="0.91 r"
   sodipodi:docname="blue-folder-books.svg">
  <metadata
     id="metadata13">
    <rdf:RDF>
      <cc:Work
         rdf:about="">
        <dc:format>image/svg+xml</dc:format>
        <dc:type
           rdf:resource="http://purl.org/dc/dcmitype/StillImage" />
      </cc:Work>
    </rdf:RDF>
  </metadata>
  <defs
     id="defs11" />
  <sodipodi:namedview
     pagecolor="#ffffff"
     bordercolor="#666666"
     borderopacity="1"
     objecttolerance="10"
     gridtolerance="10"
     guidetolerance="10"
     inkscape:pageopacity="0"
     inkscape:pageshadow="2"
     inkscape:window-width="1366"
     inkscape:window-height="747"
     id="namedview9"
     showgrid="true"
     inkscape:zoom="6.9532168"
     inkscape:cx="14.4244"
     inkscape:cy="33.547563"
     inkscape:window-x="0"
     inkscape:window-y="21"
     inkscape:window-maximized="1"
     inkscape:current-layer="svg2">
    <inkscape:grid
       type="xygrid"
       id="grid4141" />
  </sodipodi:namedview>
  <g
     id="surface1">
    <path
       style=" stroke:none;fill-rule:nonzero;fill:rgb(91.372549%,69.019608%,50.196078%);fill-opacity:1;"
       d="M 12 12 C 10 12 8 14 8 16 L 8 20 L 6 20 C 4 20 1.988281 21.898438 2 24 L 2 80 C 2 82.242188 4.074219 84 6.375 84 L 89.625 84 C 92 84 94 82 94 80 L 94 30 C 94 28 92 26 90 26 L 86 26 L 86 16 C 86 14 84 12 82 12 Z M 12 12 "
       id="path5" />
    <path
       style=" stroke:none;fill-rule:nonzero;fill:rgb(0%,0%,0%);fill-opacity:0.321569;"
       d="M 12 12 C 10 12 8 14 8 16 L 8 20 L 6 20 C 4 20 1.988281 21.898438 2 24 L 2 80 C 2 82.242188 4.074219 84 6.375 84 L 89.625 84 C 92 84 94 82 94 80 L 94 30 C 94 28 92 26 90 26 L 86 26 L 86 16 C 86 14 84 12 82 12 Z M 6 22 L 54 22 C 55.015625 22 56 22.988281 56 24 L 56 28 L 90 28 C 91.082031 28 92 28.945312 92 30 L 92 80 C 92 81.109375 91.097656 82 90 82 L 6 82 C 4.972656 82 4 81.109375 4 80 L 4 24 C 4 22.914062 4.957031 22 6 22 Z M 6 22 "
       id="path7" />
  </g>
  <path
     sodipodi:nodetypes="ccccccccccccccccccccc"
     id="path53"
     d="m 50,72 0,-22.000001 -4,0 L 46,72 Z m -5.999999,-22.999997 -12.000004,-8.000002 0,21 12.000004,8.000001 z m 20.000003,12.999998 0,-21 -12.000003,7.999662 0,21.000672 z M 62.000002,40 C 56.000001,40 52.000001,42 48,45.333335 43.999999,42 39.999999,40 33.999998,40 L 46,47.999998 l 4,0 z"
     style="fill:#000000;fill-opacity:0.32156863;fill-rule:nonzero;stroke:none"
     inkscape:connector-curvature="0" />
</svg>

<svg xmlns="http://www.w3.org/2000/svg" viewBox="0 0 96 96">
 <path d="m 12 12 c -2 0 -4 2 -4 4 l 0 4 -2 0 c -2 0 -4.01 1.898 -4 4 l 0 56 c 0 2.242 2.074 4 4.375 4 l 83.25 0 c 2.375 0 4.375 -2 4.375 -4 l 0 -50 c 0 -2 -2 -4 -4 -4 l -4 0 0 -10 c 0 -2 -2 -4 -4 -4 z m 0 0" style="fill:#42a5f5;fill-opacity:1;stroke:none;fill-rule:nonzero"/>
 <path d="m 12 12 c -2 0 -4 2 -4 4 l 0 4 -2 0 c -2 0 -4.01 1.898 -4 4 l 0 56 c 0 2.242 2.074 4 4.375 4 l 83.25 0 c 2.375 0 4.375 -2 4.375 -4 l 0 -50 c 0 -2 -2 -4 -4 -4 l -4 0 0 -10 c 0 -2 -2 -4 -4 -4 z m -6 10 48 0 c 1.016 0 2 0.988 2 2 l 0 4 34 0 c 1.082 0 2 0.945 2 2 l 0 50 c 0 1.109 -0.902 2 -2 2 l -84 0 c -1.027 0 -2 -0.891 -2 -2 l 0 -56 c 0 -1.086 0.957 -2 2 -2 z m 0 0" style="fill:#000;fill-opacity:0.322;stroke:none;fill-rule:nonzero"/>
 <path d="m 50 72 0 -22 -4 0 l 0 22 m -2 -23 -12 -8 0 21 12 8 z m 20 13 0 -21 -12 8 0 21 z m -2 -22 c -6 0 -10 2 -14 5.333 -4 -3.333 -8 -5.333 -14 -5.333 l 12 8 l 4 0 z" style="fill:#000;fill-opacity:0.322;stroke:none;fill-rule:nonzero"/>
</svg>
